X:11
M:3/4
L:1/8
Q:"Andante  "1/4=120
K:C
!p!C|([EC]>[FD]) [G2E2]c2|([dGF]>e) [d3G3F3] D|\
([EC]>[FD]) [G2E2] c2|([eG]>[dF]) [d3E3] C|\
([EC]>[FD]) [G2E2] c2|([dGF]>e) [d3G3F3] D|\
([EC]>[FD]) [G2E2] d2|([eG]>[dF]) [c2E2]||
z_B|(A>G) F3 G|(AG _B3) A/G/|\
(Ac [G2E2C2]) e2|{e/}d>c c2 z(c|\

